**kern	**kern	**dynam
*part1	*part1	*part1
*staff2	*staff1	*
*I"Piano	*	*
*clefF4	*clefG2	*
*k[b-e-a-]	*k[b-e-a-]	*
=1	=1	=1
2A-	2B- 2d 2f	.
=	=	=
4.G	2B- 2e- 2g	.
8E-	.	.
=	=	=
4BB-	4G 4e-	.
4BB-	4A- 4d 4f	.
=	=	=
4EE- 4E-	8B- 8e- 8g	.
.	(8b-L	.
4r	8an	.
.	8b-J)	.
=	=	=
2GG 2E- 2G	2B- 2e- 2b-	.
=	=	=
2AA- 2E- 2A-	2c 2e- 2cc	.
=	=	=
4GG 4E- 4G	4B- 4e- 4b-	p
4EE- 4E-	4B- 4e- 4g	.
=	=	=
(4BB-	(4e- 4g	.
8B-)	8d) 8f	.
8r	8r	.
=	=	=
2AA- 2A-	2B- 2d 2f	<
=	=	=
*-	*-	*-
!!!system-decoration: {(s1,s2)}
